X:15
T:A Few Notes for Nigel
R:jig
C:Manuel W. Balaguer-Cortes
Z:Manuel Waldesco scots-l 2002-4-15
M:6/8
L:1/8
K:G
D2G BAG | E2D E2G | D2G BAG | A2B A3 | D2G BAG | E2D E2G | BAG ABA |1 G3 GEG :|2 G3 BAG |
|: A2A EGE | A2A DEG | A2A BAG | A3 BAG | A2A EGE | A2A DEG |1 ABA GED | E3 BAG :|2 BAG ABA | G6 |]
